Simply-White-Circles/scalable/devices/ac-adapter.svg

<svg xmlns="http://www.w3.org/2000/svg" width="48" height="48" viewBox="0 0 12.7 12.7"><path d="M6.344.073a6.29 6.29 0 0 0-6.29 6.29 6.29 6.29 0 0 0 6.29 6.288 6.29 6.29 0 0 0 6.29-6.289 6.29 6.29 0 0 0-6.29-6.29zm-.018.936a5.407 5.407 0 0 1 5.407 5.407 5.407 5.407 0 0 1-5.407 5.407A5.407 5.407 0 0 1 .92 6.416 5.407 5.407 0 0 1 6.326 1.01zm-1.523 1.6c-.32 0-.578.106-.578.236V5.16h1.157V2.845c0-.13-.258-.235-.579-.235zm2.877 0c-.321 0-.58.106-.58.236V5.16h1.158V2.845c0-.13-.258-.235-.578-.235zM3.383 5.498a2.876 2.632 0 0 0 1.414 2.305 2.876 2.632 0 0 0 2.888.019 2.876 2.632 0 0 0 1.45-2.285l-5.752-.039zm2.26 2.94v2.315c0 .13.258.235.579.235.32 0 .579-.105.579-.235V8.436H5.643z" fill="#e6e6e6"/></svg>

<?xml version="1.0" encoding="UTF-8" standalone="no"?>
<svg
   xmlns:dc="http://purl.org/dc/elements/1.1/"
   xmlns:cc="http://creativecommons.org/ns#"
   xmlns:rdf="http://www.w3.org/1999/02/22-rdf-syntax-ns#"
   xmlns:svg="http://www.w3.org/2000/svg"
   xmlns="http://www.w3.org/2000/svg"
   xmlns:sodipodi="http://sodipodi.sourceforge.net/DTD/sodipodi-0.dtd"
   xmlns:inkscape="http://www.inkscape.org/namespaces/inkscape"
   width="48"
   height="48"
   viewBox="0 0 12.7 12.7"
   version="1.1"
   id="svg4"
   sodipodi:docname="ac-adapter.svg"
   inkscape:version="0.92.4 (5da689c313, 2019-01-14)">
  <metadata
     id="metadata10">
    <rdf:RDF>
      <cc:Work
         rdf:about="">
        <dc:format>image/svg+xml</dc:format>
        <dc:type
           rdf:resource="http://purl.org/dc/dcmitype/StillImage" />
        <dc:title></dc:title>
      </cc:Work>
    </rdf:RDF>
  </metadata>
  <defs
     id="defs8" />
  <sodipodi:namedview
     pagecolor="#ffffff"
     bordercolor="#666666"
     borderopacity="1"
     objecttolerance="10"
     gridtolerance="10"
     guidetolerance="10"
     inkscape:pageopacity="0"
     inkscape:pageshadow="2"
     inkscape:window-width="1087"
     inkscape:window-height="480"
     id="namedview6"
     showgrid="false"
     inkscape:zoom="4.9166667"
     inkscape:cx="2.1355932"
     inkscape:cy="24"
     inkscape:window-x="0"
     inkscape:window-y="25"
     inkscape:window-maximized="0"
     inkscape:current-layer="svg4" />
  <path
     d="m 6.344,0.073 a 6.29,6.29 0 0 0 -6.29,6.29 6.29,6.29 0 0 0 6.29,6.288 6.29,6.29 0 0 0 6.29,-6.289 6.29,6.29 0 0 0 -6.29,-6.29 z M 6.326,1.009 A 5.407,5.407 0 0 1 11.733,6.416 5.407,5.407 0 0 1 6.326,11.823 5.407,5.407 0 0 1 0.92,6.416 5.407,5.407 0 0 1 6.326,1.01 Z m -1.523,1.6 c -0.32,0 -0.578,0.106 -0.578,0.236 V 5.16 H 5.382 V 2.845 C 5.382,2.715 5.124,2.61 4.803,2.61 Z m 2.877,0 C 7.359,2.609 7.1,2.715 7.1,2.845 V 5.16 H 8.258 V 2.845 C 8.258,2.715 8,2.61 7.68,2.61 Z M 3.383,5.498 a 2.876,2.632 0 0 0 1.414,2.305 2.876,2.632 0 0 0 2.888,0.019 2.876,2.632 0 0 0 1.45,-2.285 z m 2.26,2.94 v 2.315 c 0,0.13 0.258,0.235 0.579,0.235 0.32,0 0.579,-0.105 0.579,-0.235 V 8.436 H 5.643 Z"
     id="path2"
     inkscape:connector-curvature="0"
     style="fill:#e6e6e6" />
</svg>
